packages/core/src/svgs/ghub.svg

<svg width="24" height="24" viewBox="0 0 24 24" fill="none" xmlns="http://www.w3.org/2000/svg">
<g clip-path="url(#clip0_31_10808)">
<path d="M0 0H24V24H0V0Z" fill="#F0F3FA"/>
<path d="M10.4055 5.57129L8.35693 6.89986L15.6426 6.01272L10.4055 5.57129Z" fill="#C6E9F4"/>
<path d="M13.8216 9.77984L11.5459 9.11555L15.643 6.0127L13.8216 9.77984Z" fill="#42C6EA"/>
<path d="M11.5458 9.11562L8.35721 6.8999L4.71436 13.9842L11.5458 9.11562Z" fill="#42AADB"/>
<path d="M13.5944 10.4443L4.71436 13.9843H12.9086L13.5944 10.4443Z" fill="#2A4D9B"/>
<path d="M12.913 13.984L14.0487 10.2212L19.2858 12.214L12.9087 13.984H12.913Z" fill="#1B6DB7"/>
<path d="M19.2859 12.2141L15.643 6.0127L14.2759 9.77984L19.2859 12.2141Z" fill="#2589C9"/>
<path d="M12 18.8572L12.9129 13.9844L19.2857 12.2144L12 18.8572Z" fill="#243E81"/>
<path d="M12.9086 13.9844H4.71436L12.0001 18.8572L12.9086 13.9844Z" fill="#1D1F50"/>
<path d="M13.5944 9.99858L11.5458 9.11572L4.71436 13.9843L13.5944 9.99858Z" fill="#1996CE"/>
<path d="M11.5455 9.11555L8.35693 6.89984L15.6426 6.0127L11.5455 9.11555Z" fill="#7CD1EC"/>
</g>
<defs>
<clipPath id="clip0_31_10808">
<rect width="24" height="24" fill="white"/>
</clipPath>
</defs>
</svg>

<svg xmlns="http://www.w3.org/2000/svg" width="24" height="24" fill="none" viewBox="0 0 24 24"><g clip-path="url(#a)"><path fill="#F0F3FA" d="M0 0h24v24H0z"/><path fill="#C6E9F4" d="M10.406 5.571 8.356 6.9l7.287-.887z"/><path fill="#42C6EA" d="m13.822 9.78-2.276-.664 4.097-3.103z"/><path fill="#42AADB" d="M11.546 9.116 8.357 6.9l-3.643 7.084z"/><path fill="#2A4D9B" d="m13.594 10.444-8.88 3.54h8.195z"/><path fill="#1B6DB7" d="m12.913 13.984 1.136-3.763 5.237 1.993-6.377 1.77z"/><path fill="#2589C9" d="m19.286 12.214-3.643-6.201-1.367 3.767z"/><path fill="#243E81" d="m12 18.857.913-4.873 6.373-1.77z"/><path fill="#1D1F50" d="M12.909 13.984H4.714L12 18.857z"/><path fill="#1996CE" d="m13.594 9.999-2.048-.883-6.832 4.868z"/><path fill="#7CD1EC" d="M11.546 9.116 8.356 6.9l7.287-.887z"/></g><defs><clipPath id="a"><path fill="#fff" d="M0 0h24v24H0z"/></clipPath></defs></svg>
